X:181
M:6/8
L:1/8
Q:3/8=100
K:G
d3 gbg|(f/g/a)f ege|(c/d/e)c BdB|(e/f/g)e def|\
d3 gbg|(f/g/a)f ege|(c/d/e)c (B/c/d)B|(f/g/a)f g2 G:|

